symbols-de/shields/motorway_8x4_z16.svg

<?xml version="1.0" encoding="UTF-8" standalone="no"?>
<svg
   xmlns:dc="http://purl.org/dc/elements/1.1/"
   xmlns:cc="http://creativecommons.org/ns#"
   xmlns:rdf="http://www.w3.org/1999/02/22-rdf-syntax-ns#"
   xmlns:svg="http://www.w3.org/2000/svg"
   xmlns="http://www.w3.org/2000/svg"
   xmlns:sodipodi="http://sodipodi.sourceforge.net/DTD/sodipodi-0.dtd"
   xmlns:inkscape="http://www.inkscape.org/namespaces/inkscape"
   width="100%"
   height="100%"
   viewBox="0 0 61.0 46.0"
   id="svg2"
   version="1.1"
   inkscape:version="0.91 r13725"
   sodipodi:docname="autobahn_8x4_z16.svg">
  <metadata
     id="metadata9">
    <rdf:RDF>
      <cc:Work
         rdf:about="">
        <dc:format>image/svg+xml</dc:format>
        <dc:type
           rdf:resource="http://purl.org/dc/dcmitype/StillImage" />
        <dc:title></dc:title>
      </cc:Work>
    </rdf:RDF>
  </metadata>
  <defs
     id="defs7" />
  <sodipodi:namedview
     pagecolor="#ffffff"
     bordercolor="#666666"
     borderopacity="1"
     objecttolerance="10"
     gridtolerance="10"
     guidetolerance="10"
     inkscape:pageopacity="0"
     inkscape:pageshadow="2"
     inkscape:window-width="1029"
     inkscape:window-height="726"
     id="namedview5"
     showgrid="false"
     inkscape:zoom="5.1304348"
     inkscape:cx="30.5"
     inkscape:cy="23.097458"
     inkscape:window-x="280"
     inkscape:window-y="98"
     inkscape:window-maximized="0"
     inkscape:current-layer="svg2" />
  <path
     style="fill:#365eaf;fill-opacity:1;stroke:#0528a2;stroke-width:1;stroke-miterlimit:4;stroke-dasharray:none;stroke-opacity:1"
     d="m 30.500002,0.5000016 c -0.430106,0 -0.644532,0.00362 -0.644532,0.012862 L 1.46905,2.4550323 C 0.82389,2.5481603 0.5,2.6889357 0.5,2.8751918 c 0,13.4165402 0,26.8330792 0,40.2496202 0,0.186255 0.323887,0.327035 0.96905,0.420159 l 28.38642,1.942169 c 0,0.0093 0.21443,0.01286 0.644532,0.01286 0.430108,0 0.64453,-0.0036 0.64453,-0.01286 l 28.38642,-1.942169 c 0.645164,-0.09313 0.969051,-0.233904 0.969051,-0.420159 0,-13.41654 0,-26.83308 0,-40.2496202 0,-0.1862561 -0.323887,-0.3270337 -0.969051,-0.4201595 L 31.144532,0.5128634 c 0,-0.00933 -0.21443,-0.012862 -0.64453,-0.012862 z"
     id="path6"
     inkscape:connector-curvature="0"
     sodipodi:nodetypes="sccccccsccccccs" />
</svg>

<?xml version="1.0" encoding="UTF-8"?>
<svg xmlns="http://www.w3.org/2000/svg" xmlns:xlink="http://www.w3.org/1999/xlink" width="58pt" height="62pt" viewBox="0 0 58 62" version="1.1">
<g id="surface1">
<path style="fill-rule:nonzero;fill:rgb(21.176471%,36.862745%,68.627451%);fill-opacity:1;stroke-width:1;stroke-linecap:butt;stroke-linejoin:miter;stroke:rgb(1.960784%,15.686275%,63.529412%);stroke-opacity:1;stroke-miterlimit:4;" d="M 30.5 0.501386 C 30.068629 0.501386 29.854997 0.504284 29.854997 0.512979 L 1.47077 2.454763 C 0.825768 2.547505 0.501212 2.689516 0.501212 2.875 C 0.501212 16.290701 0.501212 29.709299 0.501212 43.125 C 0.501212 43.310484 0.825768 43.452495 1.47077 43.545237 L 29.854997 45.487021 C 29.854997 45.495716 30.068629 45.498614 30.5 45.498614 C 30.931371 45.498614 31.145003 45.495716 31.145003 45.487021 L 59.52923 43.545237 C 60.174232 43.452495 60.498788 43.310484 60.498788 43.125 C 60.498788 29.709299 60.498788 16.290701 60.498788 2.875 C 60.498788 2.689516 60.174232 2.547505 59.52923 2.454763 L 31.145003 0.512979 C 31.145003 0.504284 30.931371 0.501386 30.5 0.501386 Z M 30.5 0.501386 " transform="matrix(0.95082,0,0,1.347826,0,0)"/>
</g>
</svg>
